**kern	**silbe
*ICvox	*
*E:	*
*M4/4	*
*clefG2	*
r;	.
=1	=1
1r	.
=2	=2
1r	.
=3	=3
1r	.
=4	=4
1r	.
=5	=5
1r	.
=6	=6
1r	.
=7	=7
1r	.
=8	=8
1r	.
=9	=9
1r	.
=10	=10
1r	.
=11	=11
1r	.
=12	=12
1r	.
=13	=13
1r	.
=14	=14
1r	.
=15	=15
1r	.
=16	=16
1r	.
=17	=17
1r	.
=18	=18
1r	.
=19	=19
1r	.
=20	=20
1r	.
=21	=21
4r	.
4g#	Here
8e	we
8g#	are
8r	.
[8a	hang-
=22	=22
8a]	_
8g#	-ing
8g#	on
8g#	to
4f#	strains
4e	of
=23	=23
4g#	greed
2r	.
8B	and
[8c#	blues
=24	=24
4c#]	_
2r	.
4r	.
=25	=25
4r	.
8g#	Break
8g#	the
4g#	chain.
4g#	then
=26	=26
4a	we
4g#	break
8f#	down.
8e	_
8r	.
[8e	Ooh
=27	=27
8e]	_
8e	it's
4f#	not
4g#	real|
8r	.
8d#	if
=28	=28
4d#	you
4e	don't
4f#	feel
4g#	it.
=29	=29
4r	.
8a	Un-
8b	_
4a	-spo-
4g#	-ken
=30	=30
4f#	ex-
4e	-pec-
4d#	-ta-
4e	-tions.
=31	=31
4r	.
4g#	I-
8f#	-de-
8f#	-als
4e	you
=32	=32
4d#	used
4c#	to
4B#	play
4c#	with.
=33	=33
8r	.
8c#	They've
[4b	fi-
8b]	_
8a	-na-
4g#	-lly
=34	=34
8f#	ta-
4f#	-ken
[8g#	shape
8g#]	_
8r	.
8f#	for
[8e	us.
=35	=35
8e]	_
8r	.
8.g#	Good
16g#	e-
4g#	-nough
4r	.
=36	=36
4r	.
4g#	for
4g#	you
4g#	is
=37	=37
4r	.
8.g#	good
16g#	e-
8g#	-nough
8f#	_
4r	.
=38	=38
4r	.
4a	for
4a	me.
8a	It's
8r	.
=39	=39
4.cc#	good
[8b	e-
16b]	_
4..b	-nough.
=40	=40
4r	.
8r	.
8e	It's
16g#	good
8b	e-
[16b	-nough
16b]	_
8.b	for
=41	=41
8r	.
4b	me.
8cc#	_
4r	.
8r	.
8g#	Uh
=42	=42
6ee	ai-
6dd#	-yai-
6cc#	-yai
4b	Ah
4b	ah.
=43	=43
1r	.
=44	=44
8r	.
8b	Huh
8b	Huh.
2r	.
8r	.
=45	=45
1r	.
=46	=46
1r	.
=47	=47
4r	.
4g#	Now
8e	you
8g#	say
8r	.
8e	you're
=48	=48
8a	start-
8a	-in'
4g#	to
4f#	feel
8e	the
[8g#	push
=49	=49
8g#]	_
8e	_
2r	.
8B	and
[8c#	pull
=50	=50
4c#]	_
2r	.
4r	.
=51	=51
8r	.
8g#	of
4g#	what
8g#	could
4g#	be
8e	and
=52	=52
4a	ne-
4g#	-ver
8f#	can.
8e	_
8r	.
8e	You
=53	=53
4e	mir-
4f#	-ror
4g#	me.
4r	.
=54	=54
8d#	stum-
8d#	-bl-
4d#	-in'
4f#	through
4g#	the
=55	=55
4r	.
8a	old
8b	_
4a	fash-
4g#	-ioned
=56	=56
6r	.
6f#	sup-
6e	-er-
4d#	-sti-
4e	-tions
=57	=57
4r	.
4g#	I
4f#	find
4e	to
=58	=58
4d#	hard
4c#	to
8B#	break.
4r	.
8r	.
=59	=59
8r	.
8g#	Oh
8.b	may-
[16b	-be
8b]	_
4b	you're
[8b	out
=60	=60
8b]	_
4b	of
8b	place.
8cc#	_
8g#	_
4b	What's
=61	=61
4r	.
8.b	Good
16b	e-
8b	-nough
8g#	_
4r	.
=62	=62
4r	.
4g#	for
4g#	you
4g#	is
=63	=63
4r	.
8.g#	good
16g#	e-
8g#	-nough
8f#	_
4r	.
=64	=64
4r	.
4a	for
4a	me.
8a	It's
8r	.
=65	=65
4.cc#	good
[8b	e-
8b]	_
4.b	-nough.
=66	=66
4r	.
8r	.
8e	It's
16g#	good
8b	e-
[16b	-nough
8b]	_
[8b	for
=67	=67
8b]	_
4b	me.
8cc#	_
4r	.
8r	.
8g#	Uh
=68	=68
6ee	ai-
6dd#	-yai-
6cc#	-yai
4b	yai
4b	yai.
=69	=69
8a	_
[4.g#	_
8.g#]	_
16f#	_
4r	.
=70	=70
4r	.
4g#	for
8g#	you
4.b	is
=71	=71
4.cc#	good
8b	e-
[4b	-nough
8.b]	_
16a	_
=72	=72
4r	.
4a	for
4a	me.
8a	It's
[8cc#	good.
=73	=73
8cc#]	_
4r	.
8a	It's
4cc#	good
8b	e-
[8b	-nough.
=74	=74
8b]	_
4r	.
8e	It's
16g#	good
8b	e-
[16b	-nough
16b]	_
[8.b	for
=75	=75
8b]	_
4b	me.
8cc#	_
2r	.
=76	=76
6ee	ai-
6dd#	-yai-
6cc#	-yai
8b	yai
[4.cc#	Yeah.
=77	=77
8cc#]	_
2r	.
4r	.
8r	.
=78	=78
1r	.
=79	=79
1r	.
=80	=80
1r	.
=81	=81
1r	.
=82	=82
1r	.
=83	=83
1r	.
=84	=84
1r	.
=85	=85
1r	.
=86	=86
1r	.
=87	=87
1r	.
=88	=88
1r	.
=89	=89
1r	.
=90	=90
1r	.
=91	=91
1r	.
=92	=92
1r	.
=93	=93
4r	.
8a	old
8b	_
4a	fash-
4g#	-ioned
=94	=94
6r	.
6f#	sup-
6e	-er-
4d#	-sti-
4e	-tion
=95	=95
4r	.
4g#	I
4f#	find
4e	to
=96	=96
4d#	hard
8c#	to
[8B#	break.
4B#]	_
4r	.
=97	=97
8r	.
8g#	Hey
8.b	may-
[16b	-be
8b]	_
4b	you're
[8b	out
=98	=98
8b]	_
4b	of
8b	place.
8cc#	_
8g#	_
4b	What's
=99	=99
4r	.
8.b	Good
16b	e-
8b	-nough
8g#	_
4r	.
=100	=100
4r	.
4g#	for
4g#	you
4g#	is
=101	=101
4r	.
8.g#	good
16g#	e-
8g#	-nough
8f#	_
4r	.
=102	=102
4r	.
4a	for
4a	me.
8a	It's
[8cc#	good
=103	=103
4.cc#]	_
8b	e-
2b	-nough.
=104	=104
4r	.
8r	.
8e	It's
16g#	good
8b	e-
[16b	-nough
16b]	_
[8.b	for
=105	=105
8b]	_
4b	me.
8cc#	_
4r	.
8r	.
8g#	Uh
=106	=106
6ee	ai-
6dd#	-yai-
6cc#	-yai
4b	yai
8.b	yai.
16a	_
=107	=107
[4g#	_
8.g#]	_
16f#	_
2r	.
=108	=108
4r	.
4g#	for
4g#	you
4b	is
=109	=109
4.cc#	good
8b	e-
[4b	-nough
8b]	_
16a	_
16g#	_
=110	=110
4r	.
4a	for
4a	me.
8a	It's
[8cc#	good.
=111	=111
8cc#]	_
4r	.
8a	It's
4cc#	good
8b	e-
[8b	-nough.
=112	=112
8b]	_
4r	.
8e	It's
16g#	good
8b	e-
[16b	-nough
8b]	_
[8b	for
=113	=113
8b]	_
4b	me.
8cc#	_
2r	.
=114	=114
6ee	ai-
6dd#	-yai-
6cc#	-yai
4b	yai
[4b	yai.
=115	=115
8b]	_
8a	_
[4g#	_
8.g#]	_
16f#	_
4r	.
=116	=116
6r	.
6e	Woh
6f#	woh
6g#	woh
[3b	woh
=117	=117
4b]	_
8.b	Woh.
16f#	_
16g#	_
16f#	_
4r	.
8r	.
=118	=118
2r	.
8r	.
4g#	Ah
[8f#	ha.
=119	=119
2f#]	_
2r	.
=120	=120
8r	.
8b	Huh.
4r	.
6b	uh
6dd#	yeah
6b	_
=121	=121
8r	.
8dd#	Yeah
8.dd#	yeah
[16cc#	yeah
8cc#]	_
8b	yeah.
4r	.
=122	=122
8r	.
8ee	Yeah
8dd#	yeah
8cc#	yeah
8b	yeah
4.cc#	yeah.
=123	=123
1r	.
=124	=124
1r	.
=125	=125
1r	.
r;	.
r;	.
*-	*-
!!!ENC: Nathaniel Condit-Schultz
!!!MBID: 38cd713d-a711-411e-8217-3072a497c3de
